Simply-Red-Circles/scalable/devices/camera-video.svg

<svg xmlns="http://www.w3.org/2000/svg" width="48" height="48" viewBox="0 0 12.7 12.7"><g fill="#a02c2c"><path d="M6.344.073a6.29 6.29 0 0 0-6.29 6.29 6.29 6.29 0 0 0 6.29 6.288 6.29 6.29 0 0 0 6.29-6.289 6.29 6.29 0 0 0-6.29-6.29zm-.018.936a5.407 5.407 0 0 1 5.407 5.407 5.407 5.407 0 0 1-5.407 5.407A5.407 5.407 0 0 1 .92 6.416 5.407 5.407 0 0 1 6.326 1.01zm3.487 2.266a1.25 1.376 59.922 0 0-.722 1.006 1.558 1.558 0 0 0-.676-.159h-3.09c-.869 0-1.567.699-1.567 1.567v.408L1.704 4.504v4.402l2.054-1.593v.324c0 .868.698 1.566 1.566 1.566h3.091c.868 0 1.567-.698 1.567-1.566V5.689c0-.029-.006-.055-.008-.083a1.25 1.376 59.922 0 0 1.074-.159L9.813 3.275z"/><path d="M6.344.073a6.29 6.29 0 0 0-6.29 6.29 6.29 6.29 0 0 0 6.29 6.288 6.29 6.29 0 0 0 6.29-6.289 6.29 6.29 0 0 0-6.29-6.29zm-.018.936a5.407 5.407 0 0 1 5.407 5.407 5.407 5.407 0 0 1-5.407 5.407A5.407 5.407 0 0 1 .92 6.416 5.407 5.407 0 0 1 6.326 1.01zm3.487 2.266a1.25 1.376 59.922 0 0-.722 1.006 1.558 1.558 0 0 0-.676-.159h-3.09c-.869 0-1.567.699-1.567 1.567v.408L1.704 4.504v4.402l2.054-1.593v.324c0 .868.698 1.566 1.566 1.566h3.091c.868 0 1.567-.698 1.567-1.566V5.689c0-.029-.006-.055-.008-.083a1.25 1.376 59.922 0 0 1.074-.159L9.813 3.275z"/></g></svg>

<?xml version="1.0" encoding="UTF-8" standalone="no"?>
<svg
   xmlns:dc="http://purl.org/dc/elements/1.1/"
   xmlns:cc="http://creativecommons.org/ns#"
   xmlns:rdf="http://www.w3.org/1999/02/22-rdf-syntax-ns#"
   xmlns:svg="http://www.w3.org/2000/svg"
   xmlns="http://www.w3.org/2000/svg"
   xmlns:sodipodi="http://sodipodi.sourceforge.net/DTD/sodipodi-0.dtd"
   xmlns:inkscape="http://www.inkscape.org/namespaces/inkscape"
   width="48"
   height="48"
   viewBox="0 0 12.7 12.7"
   version="1.1"
   id="svg8"
   sodipodi:docname="camera-video.svg"
   inkscape:version="0.92.4 (5da689c313, 2019-01-14)">
  <metadata
     id="metadata14">
    <rdf:RDF>
      <cc:Work
         rdf:about="">
        <dc:format>image/svg+xml</dc:format>
        <dc:type
           rdf:resource="http://purl.org/dc/dcmitype/StillImage" />
        <dc:title></dc:title>
      </cc:Work>
    </rdf:RDF>
  </metadata>
  <defs
     id="defs12" />
  <sodipodi:namedview
     pagecolor="#ffffff"
     bordercolor="#666666"
     borderopacity="1"
     objecttolerance="10"
     gridtolerance="10"
     guidetolerance="10"
     inkscape:pageopacity="0"
     inkscape:pageshadow="2"
     inkscape:window-width="1087"
     inkscape:window-height="480"
     id="namedview10"
     showgrid="false"
     inkscape:zoom="4.9166667"
     inkscape:cx="2.1355932"
     inkscape:cy="24"
     inkscape:window-x="0"
     inkscape:window-y="25"
     inkscape:window-maximized="0"
     inkscape:current-layer="svg8" />
  <g
     id="g6"
     style="fill:#a02c2c">
    <path
       d="m 6.344,0.073 a 6.29,6.29 0 0 0 -6.29,6.29 6.29,6.29 0 0 0 6.29,6.288 6.29,6.29 0 0 0 6.29,-6.289 6.29,6.29 0 0 0 -6.29,-6.29 z M 6.326,1.009 A 5.407,5.407 0 0 1 11.733,6.416 5.407,5.407 0 0 1 6.326,11.823 5.407,5.407 0 0 1 0.92,6.416 5.407,5.407 0 0 1 6.326,1.01 Z M 9.813,3.275 A 1.25,1.376 59.922 0 0 9.091,4.281 1.558,1.558 0 0 0 8.415,4.122 h -3.09 c -0.869,0 -1.567,0.699 -1.567,1.567 V 6.097 L 1.704,4.504 V 8.906 L 3.758,7.313 v 0.324 c 0,0.868 0.698,1.566 1.566,1.566 h 3.091 c 0.868,0 1.567,-0.698 1.567,-1.566 V 5.689 C 9.982,5.66 9.976,5.634 9.974,5.606 a 1.25,1.376 59.922 0 0 1.074,-0.159 z"
       id="path2"
       inkscape:connector-curvature="0" />
    <path
       d="m 6.344,0.073 a 6.29,6.29 0 0 0 -6.29,6.29 6.29,6.29 0 0 0 6.29,6.288 6.29,6.29 0 0 0 6.29,-6.289 6.29,6.29 0 0 0 -6.29,-6.29 z M 6.326,1.009 A 5.407,5.407 0 0 1 11.733,6.416 5.407,5.407 0 0 1 6.326,11.823 5.407,5.407 0 0 1 0.92,6.416 5.407,5.407 0 0 1 6.326,1.01 Z M 9.813,3.275 A 1.25,1.376 59.922 0 0 9.091,4.281 1.558,1.558 0 0 0 8.415,4.122 h -3.09 c -0.869,0 -1.567,0.699 -1.567,1.567 V 6.097 L 1.704,4.504 V 8.906 L 3.758,7.313 v 0.324 c 0,0.868 0.698,1.566 1.566,1.566 h 3.091 c 0.868,0 1.567,-0.698 1.567,-1.566 V 5.689 C 9.982,5.66 9.976,5.634 9.974,5.606 a 1.25,1.376 59.922 0 0 1.074,-0.159 z"
       id="path4"
       inkscape:connector-curvature="0" />
  </g>
</svg>
